X: 2139
T: Şarkılardan Fal Tuttum
C: Erdoğan Berker
O: Turkey
F: http://compmusic.upf.edu/node/140
N: hicaz--sarki--duyek--sarkilardan_fal--erdogan_berker
N: makam= hicaz
N: form= sarki
N: usul= duyek = 8/4
M: 8/4
L: 1/16
K: C _7/8B ^f ^c 
Q: 1/4=160
%%MIDI tuningsystem comma53
z2 A2 B2 c2 d2 cB A2 G2  | z2 A2 B2 c2 d2 cB A2 G2  | \
w:   |   | 
z2 A2 B2 c2 d2 e2 f2 g2  | 
w:   | 
a2 a4 a2 =c'=b ab a4  | z2 ga =b2 a2 g2 f2 a2 g2  | \
w:   |   | 
z2 ef g2 =f2 e2 d2 f2 e2  | 
w:   | 
z2 a2 g2 =f2 e2 d2 c2 B2  | A2 A4 A2 BA BG A4  | \
w:   |   | 
z4 c2 d2 d4 d4  | 
w:  Şar kı lar dan   | 
z2 e4 d2 d4 c4  | z2 =f2 e2 d2 c2 d2 e4  | \
w:  fal  *  tut tum   |  SAZ  | 
z4 e2 =f2 f2 f6  | z2 g4 ed d8  | 
w:  i ki mi ze   |  kaç  ke *  re    | 
z4 e2 f2 g2 a2 g2 f2  | z2 g4 =fe e8  | \
w:  i ki mi ze   |  kaç  ke *  re    | 
z2 a2 g2 =f2 e2 d2 c2 B2  | A2 A4 A2 BA BG A4  | 
w:  SAZ  |   | 
z4 c2 d2 d4 d4  | z2 e4 d2 d4 c4  | z2 =f2 e2 d2 c2 d2 e4  | \
w:  Şar kı lar dan   |  fal  *  tut tum   |  SAZ  | 
z4 e2 =f2 f2 f6  | 
w:  i ki mi ze   | 
z2 g4 ed d8  | z4 e2 f2 g2 a2 g2 f2  | \
w:  kaç  ke *  re    |  i ki mi ze   | 
z2 g4 =fe e8  | z2 a2 g2 =f2 e2 d2 c2 d2  | 
w:  kaç  ke *  re    |  SAZ  | 
e2 d2 e2 =f2 g2 fg a4  | z4 g2 a2 a2 a6  | \
w:   |  Sa na  ba har   | 
a4 a4 =b2 g2 =f2 e2  | e3/2=f/ ed e2 ^f2 g4 f4  | 
w:  gül  bül bül   |  *  *  *  *  ba na  hep  has  | 
a8 g=f ed c4  | z2 =f2 e2 d2 c2 d2 c4  | \
w:  ret  düş *  *  *  tü    |  SAZ  | 
z4 c2 d2 d4 d4  | d2 dc B2 A2 B2 c2 A4  | 
w:  ba na  hep  has  |  ret  *  *  *  *  düş *  tü    | 
z2 a2 g2 =f2 e2 d2 c2 d2  | e2 d2 e2 =f2 g2 fg a4  | \
w:  SAZ  |   | 
z4 g2 a2 a2 a6  | 
w:  Sa na  ba har   | 
a4 a4 =b2 g2 =f2 e2  | e3/2=f/ ed e2 ^f2 g4 f4  | \
w:  gül  bül bül   |  *  *  *  *  ba na  hep  has  | 
a8 g=f ed c4  | z2 =f2 e2 d2 c2 d2 c4  | 
w:  ret  düş *  *  *  tü    |  SAZ  | 
z4 c2 d2 d4 d4  | d2 dc B2 A2 B2 c2 A4  | \
w:  ba na  hep  has  |  ret  *  *  *  *  düş *  tü    | 
z2 d2 d2 e2 f2 g2 a4  | a2 b4 ag gc' ba a4  | 
w:  SAZ  |   | 
g2 a6 a4 a4  | z2 ga g2 a2 b8  | z4 c'2 c'2 c'2 c'6  | \
w:  Du a  et tim   |  her  *  *  ge ce   |  a vuç_ a çıp   | 
z2 d'4 c'b a8  | z2 d'c' b2 a2 d'2 c'b a4  | 
w:  gök le *  re    |  SAZ  | 
z4 a2 a2 a2 =b2 g2 f2  | e2 g4 =fe d8  | \
w:  a vuç_ a çıp   |  gök *  le *  re    | 
z2 d2 d2 e2 f2 g2 a4  | a2 b4 ag gc' ba a4  | 
w:  SAZ  |   | 
g2 a6 a4 a4  | z2 ga g2 a2 b8  | z4 c'2 c'2 c'2 c'6  | \
w:  Du a  et tim   |  her  *  *  ge ce   |  a vuç_ a çıp   | 
z2 d'4 c'b a8  | z2 d'c' b2 a2 d'2 c'b a4  | 
w:  gök le *  re    |  SAZ  | 
z4 a2 a2 a2 =b2 g2 f2  | e2 g4 =fe e8  | \
w:  a vuç_ a çıp   |  gök *  le *  re    | 
z2 a2 g2 =f2 e2 d2 c2 d2  | e2 d2 e2 f2 g2 fg a4  | 
w:  SAZ  |   | 
z4 g2 a2 a2 a6  | a4 a4 =b2 g2 =f2 e2  | \
w:  Sa na  ba har   |  gül  bül bül   | 
e3/2=f/ ed e2 ^f2 g4 f4  | a8 g=f ed c4  | 
w:  *  *  *  *  ba na  hep  has  |  ret  düş *  *  *  tü    | 
z2 =f2 e2 d2 c2 d2 c4  | z4 c2 d2 d4 d4  | \
w:  SAZ  |  ba na  hep  has  | 
d2 dc B2 A2 B2 c2 A4  | |


